!!!!SEGMENT: pl-wnifc--13846--141_anonim--piesni-polskie-i-ruskie-ludu-galicyjskiego-141-na-pohybel-pryjde-tomu-kto-wede-bidu.krn
!!!kernsource:
!!!cenid: 18xx:3363
!!!COM: Anonim
!!!COM-rismid: pe30004985
!!!CDT:
!!!CNT:
!!!GTL: Pieśni polskie i ruskie ludu galicyjskiego
!!!OTL: 141. Na pohybel pryjde tomu kto wede bidu
!!!PDT: 1833
!!!AGN:
!!!SMS-siglum: PL-Wnifc
!!!SMS-shelfmark: 13846
!!!SMS-shelfwork: 141 G
!!!NIFC-rismid: 1001039673
!!!URL-scan: http://repozytorium.nifc.pl/skany/pl-wnifc-nut--13846
!!!ONB-nifc:
!!!OMD: Allegro moderato
!!!key: C
**kern	**kern	**kern	**text
*part2	*part2	*part1	*part1
*staff3	*staff2	*staff1	*staff1
*I"FORTEPIAN.	*I"FORTEPIAN.	*I"GŁOS.	*
*Ipiano	*Ipiano	*Ivox	*
*ICklav	*ICklav	*ICvox	*
*IGacmp	*IGacmp	*IGsolo	*
*clefF4	*clefG2	*clefG2	*
*k[]	*k[]	*k[]	*
*C:	*C:	*C:	*
*M2/4	*M2/4	*M2/4	*
=1	=1	=1	=1
!	!LO:TX:a:t=E.243:rj	!	!
4GG/ 4GGG/	8g/|L	8g/	Na
.	8ff\|J	8ff\	po-
4d\ 4B\ 4G\	8ff\L	8ff\	-hy-
.	(>16ee\L	16ee\LL	-bel
.	16dd\JJ)	16dd\JJ	.
=2	=2	=2	=2
4C/ 4CC/	8cc\L	8cc\	pryj-
.	8ee\J	8ee\	-de
4e\ 4c\ 4G\	8ee\L	8ee\	to-
.	16dd\L	(>16dd\LL	-mu
.	16cc\JJ	16cc\JJ)	.
=3	=3	=3	=3
4GG/ 4GGG/	(<16b/LL	(<16b/LL	kto
.	16g/J	16g/JJ)	.
.	8b/^J)	8b/	we-
4f\ 4d\ 4G\	8.dd\L	8.dd\	-de-
.	16b\Jk	16b\	-bi,,
!!LO:LB:g=original
=4	=4	=4	=4
4C/ 4CC/	(16cc\LL	(>16cc\LL	,,du
.	16dd\	16dd\	.
!	!LO:TX:a:t=P:problem:fragment zamazany	!	!
.	16ee\)yy	16ee\JJ)	.
.	16ff\|JJ	16ff\	do
4e\ 4c\ 4G\	8.gg\L	8.gg\	do-
.	16ee\Jk	16ee\	-mu,
=5	=5	=5	=5
4GG/ 4GGG/	8ff\L 8dd\	8ff\	wżi-
.	8aa\J 8ff\	8aa\	-nci
4d\ 4B\ 4G\	8aa\L 8ff\	8aa\	za-
.	(>16gg\L 16ee\	(>16gg\LL	-rib-
.	16ff\JJ 16dd\)	16ff\JJ)	.
=6	=6	=6	=6
4C/ 4CC/	8ee\L 8cc\	8ee\	-ku
.	8gg\J 8ee\	8gg\	szu-
4e\ 4c\ 4G\	8gg\L 8ee\	8gg\	-ka-
.	(>16ff\L 16dd\	(>16ff\LL	-je,
.	16ee\JJ 16cc\)	16ee\JJ)	.
!!LO:LB:g=original
=7	=7	=7	=7
4GG/ 4GGG/	8dd\L 8b\	8dd\	za
.	8dd\J 8b\	8dd\	ka-
4d\ 4B\ 4G\	8.ff\L 8.dd\	8.ff\	-łyt-
.	16dd\Jk 16b\	16dd\	-ku
=8	=8	=8	=8
4C/ 4CC/	8cc/L 8g/ 8e/	8cc\	ser-
.	8ee\ 8cc\	8ee\	-ce
4e\ 4c\ 4G\	8gg\ 8ee\	8gg\	da-
.	8ee\J 8cc\	8ee\	-je
=9	=9	=9	=9
4GG/ 4GGG/	8ff\L 8dd\	8ff\	wżi-
.	8aa\J 8ff\	8aa\	-nci
4d\ 4B\ 4G\	8aa\L 8ff\	8aa\	za-
.	(>16gg\L 16ee\	(>16gg\LL	-rib-
.	16ff\JJ 16dd\)	16ff\JJ)	.
!!LO:LB:g=original
=10	=10	=10	=10
4C/ 4CC/	8ee\L 8cc\	8ee\	-ku
.	8gg\J 8ee\	8gg\	szu-
4e\ 4c\ 4G\	8gg\L 8ee\	8gg\	-ka-
.	(>16ff\L 16dd\	16ff\LL	-je
.	16ee\JJ 16cc\)	16ee\JJ	.
=11	=11	=11	=11
4GG/ 4GGG/	8dd\L 8b\	8dd\	za
.	8dd\ 8b\	8dd\	ka-
4d\ 4B\ 4G\	8.ff\ 8.dd\	8.ff\	-łyt-
!	!	!LO:N:vis=8	!
.	16dd\Jk 16b\ 16f\	16dd\	-ku
=12	=12	=12	=12
4C/ 4CC/	8cc\L 8e\	8cc\	ser-
.	8cc\ 8e\	8cc\	-ce
4c\ 4G\ 4C\	8.cc\ 8.e\	8.cc\	da-
.	16cc\Jk 16e\	16cc\	-je.
===	===	===	===
*-	*-	*-	*-
!!!system-decoration: <s1>{(s2,s3)}
!!!RDF**kern: > = above
!!!RDF**kern: < = below
!!!RDF**kern: | = vertical stroke
!!!AIN: 1 piano 1 vox
!!!ENC: Andrzej Kubiczek
!!!END: 2021-11-12
